src/standard/diagrams/supplemental.svg

<svg xmlns="http://www.w3.org/2000/svg" viewBox="0 0 36 36">
  <path d="M31 11.37h-6.38V5a.63.63 0 0 0-.62-.63H5a.63.63 0 0 0-.62.63v19a.62.62 0 0 0 .62.62h6.38V31a.62.62 0 0 0 .62.62h19a.62.62 0 0 0 .62-.62V12a.63.63 0 0 0-.62-.63Zm-19.24.05a.64.64 0 0 0-.38.58v11.37H5.62V5.62h17.76v5.75H12a.69.69 0 0 0-.24.05Zm.86 6.32v-4.23l9.87 9.86h-4.23Zm3.87 5.63h-3.87v-3.86Zm-3-10.75h4.23l5.64 5.64v4.23Zm6 0h3.87v3.87Zm10.89 17.75H12.62v-5.75H24a.6.6 0 0 0 .44-.18.65.65 0 0 0 .18-.44V12.62h5.76Z"/>
</svg>

<svg id="b9a57285-690c-4679-bff2-20cea196dbe5" data-name="Layer 1" xmlns="http://www.w3.org/2000/svg" viewBox="0 0 36 36">
  <path d="M31,11.37H24.62V5A.63.63,0,0,0,24,4.37H5A.63.63,0,0,0,4.38,5V24a.62.62,0,0,0,.62.62h6.38V31a.62.62,0,0,0,.62.62H31a.62.62,0,0,0,.62-.62V12A.63.63,0,0,0,31,11.37Zm-19.24.05a.64.64,0,0,0-.38.58V23.37H5.62V5.62H23.38v5.75H12A.69.69,0,0,0,11.76,11.42Zm.86,6.32V13.51l9.87,9.86H18.26Zm3.87,5.63H12.62V19.51Zm-3-10.75h4.23l5.64,5.64v4.23Zm6,0h3.87v3.87ZM30.38,30.37H12.62V24.62H24a.6.6,0,0,0,.44-.18.65.65,0,0,0,.18-.44V12.62h5.76Z"/>
</svg>
